src/assets/images/warning.svg

<svg xmlns="http://www.w3.org/2000/svg" height="48" width="48"><path d="M24.05 24.45ZM4.6 42q-.85 0-1.3-.75-.45-.75 0-1.5l19.4-33.5q.45-.75 1.3-.75.85 0 1.3.75l19.4 33.5q.45.75 0 1.5t-1.3.75Zm19.6-22.6q-.65 0-1.075.425-.425.425-.425 1.075v8.2q0 .65.425 1.075.425.425 1.075.425.65 0 1.075-.425.425-.425.425-1.075v-8.2q0-.65-.425-1.075-.425-.425-1.075-.425Zm0 16.75q.65 0 1.075-.425.425-.425.425-1.075 0-.65-.425-1.075-.425-.425-1.075-.425-.65 0-1.075.425Q22.7 34 22.7 34.65q0 .65.425 1.075.425.425 1.075.425ZM7.2 39h33.6L24 10Z"/></svg>

<?xml version="1.0" encoding="utf-8"?>
<!-- Generator: Adobe Illustrator 13.0.0, SVG Export Plug-In . SVG Version: 6.00 Build 14948)  -->
<!DOCTYPE svg PUBLIC "-//W3C//DTD SVG 1.1//EN" "http://www.w3.org/Graphics/SVG/1.1/DTD/svg11.dtd">
<svg version="1.1" id="Layer_1" xmlns="http://www.w3.org/2000/svg" xmlns:xlink="http://www.w3.org/1999/xlink" x="0px" y="0px"
	 width="48px" height="48px" viewBox="0 0 48 48" enable-background="new 0 0 48 48" xml:space="preserve">
<path fill="#FFFFFF" stroke="#FFFFFF" d="M4.6,42c-0.567,0-1-0.25-1.3-0.75c-0.3-0.5-0.3-1,0-1.5l19.4-33.5
	C23,5.75,23.433,5.5,24,5.5c0.566,0,1,0.25,1.3,0.75l19.4,33.5c0.3,0.5,0.3,1,0,1.5S43.967,42,43.4,42H4.6z M24.2,19.4
	c-0.434,0-0.792,0.142-1.075,0.425C22.842,20.108,22.7,20.467,22.7,20.9v8.2c0,0.434,0.142,0.792,0.425,1.075
	c0.283,0.284,0.642,0.425,1.075,0.425c0.433,0,0.792-0.141,1.075-0.425c0.283-0.283,0.425-0.642,0.425-1.075v-8.2
	c0-0.433-0.142-0.792-0.425-1.075C24.992,19.542,24.633,19.4,24.2,19.4z M24.2,36.15c0.433,0,0.792-0.143,1.075-0.426
	S25.7,35.084,25.7,34.65s-0.142-0.792-0.425-1.075c-0.283-0.284-0.643-0.425-1.075-0.425c-0.434,0-0.792,0.141-1.075,0.425
	c-0.283,0.283-0.425,0.642-0.425,1.075s0.142,0.791,0.425,1.074S23.767,36.15,24.2,36.15z M7.2,39h33.6L24,10L7.2,39z"/>
</svg>
